X:1
T:Marche du Mont St Louis
C:Alfred Montmarquette
Z:robin.beech@mcgill.ca
R:march
M:4/4
L:1/8
K:D
A Bc |: d2e2 f>f ef | d4- dA Bc | d>c BA BA GF |
F2E2- EA/A/ AA | e2f2 g>f ed | c4- ca/a// aa |
a2g2 B>c BA |1 f4- fA Bc :|2 dA/A/ B/A/F/A/ d>a b>f |:
a4- af ed | A4- AA/A/ B/A/B/c/ | dd/B/ dd/B/ dd/B/ dd/B/ |
c4- ca b>f | a4- ag e>c | A6- Ad |1 c2a2 B2g2 | 
f4- fa b>f :|2 c2a2 B>c BA | dA/A/ B/A/F/A/ dA Bc |3 c2a2 B>c BA | dA/A/ B/A/F/A/ dA/A/ B/A/F/A/ d2 |]
